X: 11261
T: WRECKER'S DAUGHTER QUICKSTEP
C: By Conrad Fay
%R: quickstep, march
N: This is version 1, for ABC software that doesn't understands voice overlays and tremolo notation.
N: Tremolos transcribed as repeated notes; repeated measures transcribed as duplicated measures.
N: Voices 4,5 (Trombone, Ophecleide) split apart into 2 staves.
N: No ABC software seems to handle the trailing grace notes in bars 3,7; rewritten as 32nd notes.
N: In bar 4, there's a dot after a missing d' note; fixed to agree with bar 3.
B: Elias Howe "The Musician's Companion" Part 1 1842 p.126-128
S: http://imslp.org/wiki/The_Musician's_Companion_(Howe,_Elias)
Z: 2015 John Chambers <jc:trillian.mit.edu>
M: 2/4
L: 1/8
K: Eb
%%indent 70
%%sysstaffsep 40
%%systemsep   45
% - - - - - - - - - - - - - - - - - - - - - - - - -
V: 1 name="Eb Bugle" sname="EbBgl" staves=5
K: C
|: \
!ff!g/g/g/z/ g/g/g/z/ | g/g/g/z/ g/g/g/z/ | !p!zEEE | zEEE |\
a/a/a/z/ a/a/a/z/ | a/a/a/z/ a/a/a/z/ | !p!.A.c (f3/2f//a//) |
fedc |\
!ff![b/B/][b/B/][b/B/]z/ [b/B/][b/B/][b/B/]z/ | [b/B/][b/B/][b/B/]z/ [b/B/][b/B/][b/B/]z/ |\
GB/d/ "^>"g2 | GB/d/ "^>"g2 |\
(cd).c.e | (dc).B.d | c/c/c/z/ c/c/c/z/ | c2 z2 :|
zB, zB, | zB, zB, | zD zD | zB,B,B, |\
zB, zB, | zB, zB, | zD zD | B,z "^>"B,2 |
.d!f!.d("^>"ed) | .B.B("^>"cB) | .A.A("^>"ed) | B>^F (G/A/B/c/) |\
.d!f!.d("^>"ed) | .B.B("^>"cB) | .A.A("^>"ed) |  Gz "^>"g2 |
z4 | z4 | z4 | z4 | z4 | z4 | !f!z^f/f/ ff | gz g2 |
!f!E2 Gc | E2 Gc | F2 Ac | E2 Gc |\
D2 FA | G2 ce | dG/G/ AB | c2 z2 H|]
% - - - - - - - - - - - - - - - - - - - - - - - - -
V: 2 name="Bb Bugle" sname="BbBgl"
K: F
|:\
[a/A/][a/A/][a/A/]z/ [a/A/][a/A/][a/A/]z/ | [a/A/][a/A/][a/A/]z/ [a/A/][a/A/][a/A/]z/ | !p!zCCC | zCCC | \
[b/B/][b/B/][b/B/]z/ [b/B/][b/B/][b/B/]z/ | [b/B/][b/B/][b/B/]z/ [b/B/][b/B/][b/B/]z/ | !p!zddd |
!p!zddd | !ff!\
[g/G/][g/G/][g/G/]z/ [g/G/][g/G/][g/G/]z/ | [g/G/][g/G/][g/G/]z/ [g/G/][g/G/][g/G/]z/ | Gz "_>"e2 | gz "_>"e2 |\
(cB).A.c | BAGB | A/A/A/z/ A/A/A/z/ | A2 z2 :|
!p!.e.e("^>"fe) | .c.c("^>"dc) | .B.B("^>"fe) | c>G (E/G/c/d/) |\
.e.e("^>"fe) | .c.c("^>"dc) | .B.B("^>"fe) | cz "^>"e2 |\
zE zE | zE zE | zG zG | zEEE |\
zE zE | zE zE | zG zG | Ez "^>"e2 |
F2 z2 | F2 z2 | F2 z2 | F2 z2 |\
F2 z2 | F2 z2 | Df/f/ ff | ez "_>"e2 |
!f!F2 z2 | F2 z2 | F2 z2 | F2 z2 |\
E2 FA | F2 z2 | BB/B/ BB | A2 z2 H|]
% - - - - - - - - - - - - - - - - - - - - - - - - -
V: 3 name="Trumpet Eb" sname="EbTpt"
K: C
|: !ff!\
c/c/c/z/ c/c/c/z/ | c/c/c/z/ c/c/c/z/ | !p!EG (c3/2c//d//) | cBAG |!ff!\
c/c/c/z/ c/c/c/z/ | c/c/c/z/ c/c/c/z/ | !p!z CCC |
z CCC |!ff!\
G/G/G/z/ G/G/G/z/ | G/G/G/z/ G/G/G/z/ | Gz "_>"G2 | Gz "_>"G2 |\
Gz GG | Gz GG | G/G/G/z/ G/G/G/z/ | G2 z2 :|
!p!.d.d("^>"ed) | .B.B("^>"cB) | .A.A("^>"ed) | B>^F (G/A/B/c/) |\
.d.d("^>"ed) | .B.B("^>"cB) | .A.A("^>"ed) | Gz "^>"g2 |
.B.B(cB"^>") | .G.G("_>"AG) | .^F.F("_>"cB) | G2 z/(^F/G/A/) |\
.B.B("^>"cB) | .G.G("_>"AG) | .^F.F("_>"cB) | Gz "^>"d2 |
E2 Gc | E2 Gc | F2 Ac | E2 Gc |\
D2 FA | G2 ce | dd/d/ dd | Gz "^>"D2 |
E2 Gc | E2 Gc | F2 Ac | E2 Gc |\
D2 FA | G2 ce | dd/d/ dd | c2 z2 H|]
% - - - - - - - - - - - - - - - - - - - - - - - - -
V: 4 name="Trombone" sname="Tbn" clef=bass middle=D
K: Eb
|:\
e/e/e/z/ e/e/e/z/ | e/e/e/z/ e/e/e/z/ | z[fd][fd][fd] | z[fd][fd][fd] |
A/A/A/z/ A/A/A/z/ | A/A/A/z/ A/A/A/z/ | zAAA |
zAAA |!ff!\
B/B/B/z/ B/B/B/z/ | B/B/B/z/ B/B/B/z/ |\
dz "^>"B2 | dz "^>"B2 | Ez GE | Bz BB |\
e/e/e/z/ e/e/e/z/ | e2 z2 :|
%
!p!zB zB | zB zB | zA zA | zBBB |\
   zB zB  | zB zB  | zA zA  | Bz "^>"B2 |
!f!zB zB  | zB zB  | zA zA  | zBBB  |\
   zB zB  | zB zB  | zA zA  | Bz "^>"B2 |
%
!p!B2 z2 | B2 z2 | c2 z2 | B2 z2 |\
B2 z2 | B2 z2 | !f!=Ac/c/ cc | Bz "^>"B2 |
!f!B2 z2 | B2 z2 | c2 z2 | B2 z2 |\
B2 z2 | B2 z2 | BB/B/ BB | B2 z2 H|]
% - - - - - - - - - - - - - - - - - - - - - - - - -
V: 5 name="Ophecleide" sname="Oph" clef=bass middle=d
K: Eb
|:\
e/e/e/z/ e/e/e/z/ | e/e/e/z/ e/e/e/z/ | e2 z2 | e2 z2 |\
A/A/A/z/ A/A/A/z/ | A/A/A/z/ A/A/A/z/ | A2 z2 |
A2 z2 |!ff!\
B/B/B/z/ B/B/B/z/ | B/B/B/z/ B/B/B/z/ | Bz "^>"B2 | Bz "^>"B2 |\
Ez GE | Bz dB | e/e/e/z/ e/e/e/z/ | e2 z2 :|
%
!p!Bz bz | Bz bz | Fz fz | B2 z2 |\
   Bz bz | Bz bz | fz Fz | Bz "^>"B2 |
!f!Bz bz | Bz bz | Fz fz | B2 z2 |\
   Bz bz | Bz bz | fz Fz | Bz "^>"B2 |
%
!p!e2 z2 | e2 z2 | e2 z2 | e2 z2 |\
   b2 z2 | e2 z2 | !f!ff/f/ ff | Bz "^>"B2 |
!f!E2 z2 | E2 z2 | E2 z2 | E2 z2 |\
   B2 z2 | E2 z2 | B2 BB | E2 z2 H|]
% - - - - - - - - - - - - - - - - - - - - - - - - -

% (Continued from previous page)

% (Continued from previous page)


